X:49
T:Pop goes the weasle
S:John Moore's Book 2
Z:Transcribed Steve Mansfield 04/2021
%%VWML: Moore2-4494-p37-0
F:http://www.vwml.org/record/Moore2/4494/p37
M:C
L:1/8
K:G
GBAc Bd (3cBA | GBAc B2G2 | cBcd efg2 | e2Ac B2G2 :|
|: g2(eg) fddf | g2(3efg f2d2 | cBcd efg2 | e2Ac B2G2 :|

